X: 262
T: Chinquapin Hunting [2]
B: canberra pickers and fiddlers
B: tunes
M:2/4
L:1/8
R: reel
Q: 1/4=75
K:D
V:1 
F/G/|A/B/A/F/ D/E/F/D/|"*"EA AF/G/|A/B/A/F/ D/E/F/D/|1 (3E/F/E/D D:|2 ED D||
|:A/c/|B/d/e/f/ e/d/B/d/|e/d/e/f/ e/d/A/c/|B/A/B/c/ d/B/G/A/|(3B/c/B/A A A/c/|
B/d/e/f/ e/d/B/d/|e/d/e/f/ e/g/f/a/|g/b/a/g/ f/e/d/c/|(3B/c/B/A A:|
% abcbook-tune_id 63ae8f1cbaa1b96f25950c3c
% abcbook-tune_composer_id 
% abcbook-link-0 https://www.youtube.com/watch?v=uBtNEzVmJ7U
% abcbook-boost 0
% abcbook-difficulty 0
% abcbook-tags canberra pickers and fiddlers,old time tunes,steve ryan,© free
% abcbook-tablature 
% abcbook-transpose 
% abcbook-tuning AEAE
% abcbook-lastupdated 1675156087160
% abcbook-src-url https://tunebook.net/scrape/tunes.abc
% abcbook-soundfonts 
% abcbook-repeats 1


